Newaita/actions/symbolic/view-right-pane-symbolic.svg

<svg height="16" viewBox="0 0 16 16" width="16" xmlns="http://www.w3.org/2000/svg"><path d="m14.253906 1.117188c.347656 0 .628906.28125.628906.632812v12.628906c0 .347656-.28125.628906-.628906.628906h-12.621094c-.351562 0-.632812-.28125-.632812-.628906v-12.628906c0-.351562.28125-.632812.632812-.632812zm-1.675781 1.984374h-4.300781c-.183594 0-.332032.148438-.332032.332032v9.261718c0 .183594.148438.328126.332032.328126h4.300781c.179687 0 .328125-.144532.328125-.328126v-9.261718c0-.183594-.148438-.332032-.328125-.332032zm0 0" fill="#424242"/></svg>

<?xml version="1.0" encoding="UTF-8"?>
<svg xmlns="http://www.w3.org/2000/svg" xmlns:xlink="http://www.w3.org/1999/xlink" width="16px" height="16px" viewBox="0 0 16 16" version="1.1">
<g id="surface1">
<path style=" stroke:none;fill-rule:nonzero;fill:rgb(25.882354%,25.882354%,25.882354%);fill-opacity:1;" d="M 14.253906 1.117188 C 14.601562 1.117188 14.882812 1.398438 14.882812 1.75 L 14.882812 14.378906 C 14.882812 14.726562 14.601562 15.007812 14.253906 15.007812 L 1.632812 15.007812 C 1.28125 15.007812 1 14.726562 1 14.378906 L 1 1.75 C 1 1.398438 1.28125 1.117188 1.632812 1.117188 Z M 12.578125 3.101562 L 8.277344 3.101562 C 8.09375 3.101562 7.945312 3.25 7.945312 3.433594 L 7.945312 12.695312 C 7.945312 12.878906 8.09375 13.023438 8.277344 13.023438 L 12.578125 13.023438 C 12.757812 13.023438 12.90625 12.878906 12.90625 12.695312 L 12.90625 3.433594 C 12.90625 3.25 12.757812 3.101562 12.578125 3.101562 Z M 12.578125 3.101562 "/>
</g>
</svg>
